dist/assets/img/svg/icon-tlg.svg

<svg width="48" height="48" viewBox="0 0 48 48"  xmlns="http://www.w3.org/2000/svg">
<g id="telegram" clip-path="url(#clip0_45_2331)">
<path id="Vector"  d="M24 0C17.6362 0 11.5275 2.53013 7.03125 7.02938C2.53036 11.5304 0.00124676 17.6347 0 24C0 30.3626 2.53125 36.4714 7.03125 40.9706C11.5275 45.4699 17.6362 48 24 48C30.3638 48 36.4725 45.4699 40.9688 40.9706C45.4688 36.4714 48 30.3626 48 24C48 17.6374 45.4688 11.5286 40.9688 7.02938C36.4725 2.53013 30.3638 0 24 0Z" fill="#58595B"/>
<path id="Vector_2" class="sc-icon" d="M11.3321 23.6987C18.0979 20.6507 22.6085 18.6411 24.8638 17.6702C31.3106 14.8979 32.6485 14.4164 33.5223 14.4C33.7145 14.3969 34.1424 14.446 34.4215 14.6794C34.6536 14.8763 34.7189 15.1425 34.7515 15.3295C34.7805 15.5162 34.8204 15.9418 34.7878 16.2741C34.4397 20.0691 32.9277 29.2782 32.159 33.5288C31.8363 35.3273 31.1945 35.9303 30.5745 35.9892C29.2257 36.1174 28.2032 35.0682 26.8979 34.1836C24.8565 32.7987 23.7035 31.937 21.7202 30.5859C19.4286 29.0244 20.9152 28.166 22.2205 26.7635C22.5614 26.3964 28.5005 20.8108 28.6129 20.3042C28.6274 20.2408 28.6419 20.0046 28.5041 19.8801C28.37 19.7552 28.1706 19.7979 28.0255 19.8317C27.8189 19.8797 24.5592 22.1102 18.2357 26.5228C17.3111 27.1805 16.4736 27.5011 15.7194 27.4843C14.8927 27.4659 13.2973 26.9998 12.1117 26.6015C10.6613 26.1129 9.50466 25.8545 9.60618 25.0247C9.65695 24.5927 10.2335 24.1505 11.3321 23.6987Z"/>
</g>
<defs>
<clipPath id="clip0_45_2331">
<rect width="48" height="48" fill="white"/>
</clipPath>
</defs>
</svg>

<svg width="48" height="48" fill="none" xmlns="http://www.w3.org/2000/svg"><g clip-path="url(#clip0_1026_277)"><path d="M24 0A24.007 24.007 0 000 24a24.007 24.007 0 0024 24 24.007 24.007 0 0024-24A24.007 24.007 0 0024 0z" fill="#58595B"/><path d="M11.332 23.699c6.766-3.048 11.276-5.058 13.532-6.029 6.447-2.772 7.784-3.254 8.658-3.27.193-.003.62.046.9.28.232.196.297.463.33.65.029.186.068.612.036.944-.348 3.795-1.86 13.004-2.629 17.255-.323 1.798-.964 2.401-1.584 2.46-1.35.128-2.372-.92-3.677-1.805-2.041-1.385-3.195-2.247-5.178-3.598-2.291-1.562-.805-2.42.5-3.822.341-.368 6.28-5.953 6.393-6.46.014-.063.029-.3-.109-.424-.134-.125-.333-.082-.479-.048-.206.048-3.466 2.278-9.79 6.69-.924.659-1.761.98-2.516.962-.826-.018-2.422-.484-3.607-.883-1.45-.488-2.607-.746-2.506-1.576.051-.432.627-.874 1.726-1.326z" fill="#fff"/></g><defs><clipPath id="clip0_1026_277"><path fill="#fff" d="M0 0h48v48H0z"/></clipPath></defs></svg>C19.4286 29.0244 20.9152 28.166 22.2205 26.7635C22.5614 26.3964 28.5005 20.8108 28.6129 20.3042C28.6274 20.2408 28.6419 20.0046 28.5041 19.8801C28.37 19.7552 28.1706 19.7979 28.0255 19.8317C27.8189 19.8797 24.5592 22.1102 18.2357 26.5228C17.3111 27.1805 16.4736 27.5011 15.7194 27.4843C14.8927 27.4659 13.2973 26.9998 12.1117 26.6015C10.6613 26.1129 9.50466 25.8545 9.60618 25.0247C9.65695 24.5927 10.2335 24.1505 11.3321 23.6987Z" fill="white"/>
</g>
<defs>
<clipPath id="clip0_1026_277">
<rect width="48" height="48" fill="white"/>
</clipPath>
</defs>
</svg>
